assets/awsbackupcompliancereporting/original.svg

<svg height="48" viewBox="0 0 48 48" width="48" xmlns="http://www.w3.org/2000/svg"><path d="m15.271 10h17.279l-1.25-4h-4.485a2.99 2.99 0 0 1 -2.815 2 2.995 2.995 0 0 1 -2.816-2h-4.663zm7.729-5a1.001 1.001 0 0 0 2 0 1.001 1.001 0 0 0 -2 0m-9.895 6.592a1 1 0 0 1 -.148-.89l1.875-6a1 1 0 0 1 .954-.702h5.398a2.995 2.995 0 0 1 2.816-2c1.301 0 2.401.838 2.815 2h5.221c.437 0 .824.284.954.702l1.875 6a1 1 0 0 1 -.149.89 1 1 0 0 1 -.805.408h-20a1 1 0 0 1 -.806-.408m25.895-5.592h-3v2h3c.551 0 1 .449 1 1v34c0 .551-.449 1-1 1h-30c-.552 0-1-.449-1-1v-34c0-.551.448-1 1-1h3v-2h-3c-1.655 0-3 1.346-3 3v34c0 1.654 1.345 3 3 3h30c1.654 0 3-1.346 3-3v-34c0-1.654-1.346-3-3-3m-24.5 21.5c0 5.238 4.261 9.5 9.5 9.5s9.5-4.262 9.5-9.5-4.262-9.5-9.5-9.5-9.5 4.262-9.5 9.5m-2 0c0-6.341 5.159-11.5 11.5-11.5 6.34 0 11.5 5.159 11.5 11.5s-5.16 11.5-11.5 11.5c-6.341 0-11.5-5.159-11.5-11.5m8.76 4.245-3.258-3.258 1.415-1.414 2.55 2.551 6.281-6.281 1.414 1.414-6.988 6.988a.996.996 0 0 1 -1.414 0" fill="#7aa116" fill-rule="evenodd"/></svg>

<svg xmlns="http://www.w3.org/2000/svg" width="48" height="48" viewBox="0 0 48 48"><title>Icon-Resource/Storage/Res_AWS-Backup_Compliance-Reporting_48</title><g id="Icon-Resource/Storage/Res_AWS-Backup_Compliance-Reporting_48" fill="none" fill-rule="evenodd" stroke="none" stroke-width="1"><path id="Fill-1" fill="#7aa116" d="M15.271 10H32.55L31.3 6h-4.485A2.99 2.99 0 0 1 24 8a2.995 2.995 0 0 1-2.816-2h-4.663zM23 5a1.001 1.001 0 0 0 2 0 1.001 1.001 0 0 0-2 0m-9.895 6.592a1 1 0 0 1-.148-.89l1.875-6A1 1 0 0 1 15.786 4h5.398A2.995 2.995 0 0 1 24 2c1.301 0 2.401.838 2.815 2h5.221c.437 0 .824.284.954.702l1.875 6a1 1 0 0 1-.149.89 1 1 0 0 1-.805.408h-20a1 1 0 0 1-.806-.408M39 6h-3v2h3c.551 0 1 .449 1 1v34c0 .551-.449 1-1 1H9c-.552 0-1-.449-1-1V9c0-.551.448-1 1-1h3V6H9C7.345 6 6 7.346 6 9v34c0 1.654 1.345 3 3 3h30c1.654 0 3-1.346 3-3V9c0-1.654-1.346-3-3-3M14.5 27.5c0 5.238 4.261 9.5 9.5 9.5s9.5-4.262 9.5-9.5S29.238 18 24 18s-9.5 4.262-9.5 9.5m-2 0C12.5 21.159 17.659 16 24 16c6.34 0 11.5 5.159 11.5 11.5S30.34 39 24 39c-6.341 0-11.5-5.159-11.5-11.5m8.76 4.245-3.258-3.258 1.415-1.414 2.55 2.551 6.281-6.281 1.414 1.414-6.988 6.988a.996.996 0 0 1-1.414 0"/></g></svg>
